!!!COM: Bach, Johann Sebastian
!!!CDT: 1685/3//-1750/7/28/
!!!OTL@@DE: Nun lob', mein' Seel', den Herren
!!!AGN: 4-Part Chorale
!!!SCT: BH 268
!!!SCT: BWV 389
**harm	**root	**kern	**kern	**kern	**kern
!	!	!bass	!tenor	!alto	!soprno
*	*Iorgan	*Iorgan	*Iorgan	*Iorgan	*Iorgan
*M4/4	*M4/4	*M4/4	*M4/4	*M4/4	*M4/4
*met(c)	*met(c)	*met(c)	*met(c)	*met(c)	*met(c)
*MM60	*MM60	*MM60	*MM60	*MM60	*MM60
*k[b-e-]	*k[b-e-]	*k[b-e-]	*k[b-e-]	*k[b-e-]	*k[b-e-]
*B-:	*B-:	*B-:	*B-:	*B-:	*B-:
*>[A,A,B]	*>[A,A,B]	*>[A,A,B]	*>[A,A,B]	*>[A,A,B]	*>[A,A,B]
*>A	*>A	*>A	*>A	*>A	*>A
I	4CC	8B-	4d	4f	4b-
.	.	8A	.	.	.
=1	=1	=1	=1	=1	=1
vi	4AA	4G	4d	4g	4b-
iii	4EE	4D	8d	4f	4a
.	.	.	8c	.	.
IV	4FF	4E-	4B-	8f	4g
.	.	.	.	8e-	.
I	4CC	8BB-	4B-	8d	4f
.	.	8C	.	8e-	.
=2	=2	=2	=2	=2	=2
Ib	4CC	4D	4.B-	4f	4b-
ii7b	8DD	8E-	.	8g	4cc
V	8GG	8F	8A	8f	.
I;	4CC;	4BB-;	4B-;	4f;	4dd;
I	4CC	4BB-	8B-	4f	4dd
.	.	.	8c	.	.
=3	=3	=3	=3	=3	=3
I	8CC	4B-	8d	8f	8dd
ii7d	8DD	.	8e-	8g	8cc
Vb/vi	4EE	4F#	8d	4a	4dd
.	.	.	8c	.	.
vi	4AA	8G	4.B-	4.g	4dd
.	.	8F	.	.	.
ii7b	8DD	8E-	.	.	4cc
V	8GG	8F	8A	8f	.
=4	=4	=4	=4	=4	=4
Ib	8CC	8D	4B-	8f	8b-
ii7b	8DD	8E-	.	8g	8cc
V	4GG	4F	4A	8f	4ccT
.	.	.	.	8e-	.
I;	4CC;	4BB-;	4F;	4d;	4b-;
=:|!	=:|!	=:|!	=:|!	=:|!	=:|!
*>B	*>B	*>B	*>B	*>B	*>B
I	4CC	4BB-	4F	4d	4b-
=5	=5	=5	=5	=5	=5
IV	4FF	4E-	4G	4e-	8b-
.	.	.	.	.	8cc
Ib	4CC	8D	8F	4b-	4dd
.	.	8E-	8G	.	.
V	4GG	4F	4A	8f	4cc
.	.	.	.	8e-	.
Vb/vi	4EE	4F#	4A	4d	4dd
=6	=6	=6	=6	=6	=6
vi	4AA	4G	8A	2d	4b-
.	.	.	4G	.	.
V/vi	4EE	4D	.	.	4a
.	.	.	8F#	.	.
vi;	4AA;	4GG;	4B-;	4d;	4g;
vi	4AA	8G	8B-	4d	4g
.	.	8F	8A	.	.
!!linebreak: 3
=7	=7	=7	=7	=7	=7
Vb/V	4DD	4E	4G	4c	8cc
.	.	.	.	.	8b-
V	4GG	8F	4F	4c	4a
.	.	8E	.	.	.
Ib	8CC	8D	4F	8f	8b-
I7	8CC	8BB-	.	8d	8a
V/V	4DD	4C	8c	4e	4g
.	.	.	8B-	.	.
=8	=8	=8	=8	=8	=8
V;	4GG;	4FF;	4A;	4c;	4f;
V	4GG	8F	8A	4c	4f
.	.	8E-	8G	.	.
Ib	4CC	4D	4F	8f	4b-
.	.	.	.	8e-	.
vi	4AA	8G	4B-	4d	4b-
.	.	8F	.	.	.
=9	=9	=9	=9	=9	=9
ii7b	4DD	8E-	4B-	8g	4cc
.	.	8C	.	8e-	.
V	4GG	4F	4A	4f	4cc
I	4CC	4.BB-	4B-	8f	8dd
.	.	.	.	8e-	8cc
V7/IV	4CC	.	4A-	4f	4dd
.	.	16C	.	.	.
.	.	16D	.	.	.
=10	=10	=10	=10	=10	=10
IV;	4FF;	4E-;	4G;	4e-;	4b-;
I	4CC	4D	4B-	4f	4b-
ii	4DD	4C	8c	8e-	4ee-
.	.	.	8d	8f	.
ii	4DD	4c	4e-	4g	4ee-
=11	=11	=11	=11	=11	=11
iv/ii	4GG	8F	4f	4a-	8dd
.	.	8A-	.	.	8cc
V/ii	4AA	4G	4B	4d	4dd
ii;	4DD;	4C;	4G;	4e-;	4cc;
V	4GG	4F	4A	4f	4cc
=12	=12	=12	=12	=12	=12
I	4CC	8B-	4B-	4f	4dd
.	.	8A	.	.	.
vi	4AA	8G	4B-	4g	4dd
.	.	8F	.	.	.
iib	4DD	8E-	4c	4g	4ee-
.	.	8D	.	.	.
IVb/IV	4BB-	4C	4c	4a-	4ee-
!!linebreak: 3
=13	=13	=13	=13	=13	=13
V7/IV	4CC	4BB-	8d	4a-	8ff
.	.	.	8c	.	16ee-
.	.	.	.	.	16dd
vi7/IV	8DD	8C	8B-	8g	8ee-
viio/IV	8EE	8D	8A-	8f	8ff
IV;	4FF;	4E-;	4G;	4e-;	4b-;
I	4CC	4B-	8B-	4f	4dd
.	.	.	8A	.	.
=14	=14	=14	=14	=14	=14
Vb/V	4DD	4E	4G	4g	8cc
.	.	.	.	.	8b-
V	4GG	4F	4c	4f	4a
Ib	8CC	8D	4F	8f	8b-
I7	8CC	8BB-	.	8d	8a
V/V	4DD	4C	8c	4e	4g
.	.	.	8B-	.	.
=15	=15	=15	=15	=15	=15
V;	4GG;	4FF;	4A;	4c;	4f;
V	4GG	4FF	4A	4c	4f
vi	4AA	4GG	8D	4g	4b-
.	.	.	8E	.	.
Vb	4GG	8AA	4F	8c	4a
.	.	8BB-	.	8d	.
=16	=16	=16	=16	=16	=16
ii	4DD	4C	4c	4e-	4g
Ib	4CC	4D	8c	4f	4f
.	.	.	8B-	.	.
viio7c	4BB	4E-	8B-	4.g	4cc
.	.	.	8A	.	.
viio7/V	4FF#	4E	4B-	.	4dd
.	.	.	.	16a	.
.	.	.	.	16b-	.
=17	=17	=17	=17	=17	=17
V;	4GG;	4F;	4A;	4f;	4cc;
Vb/vi	4EE	4F#	8d	4a	4dd
.	.	.	8c	.	.
vi	4AA	8G	8B-	4g	4ee-
.	.	8A	8c	.	.
I	8CC	4B-	8d	8f	4dd
IV7c	8FF	.	8e-	8g	.
=18	=18	=18	=18	=18	=18
V7d	8GG	8E-	8f	4a	4cc
V7	8GG	8F	8e-	.	.
vi	4AA	4G	8d	2b-	8b-
.	.	.	8e-	.	8cc
Ic	4CC	8F	4.f	.	4dd
.	.	8E-	.	.	.
V	4GG	4F	.	4a	4cc
.	.	.	8e-	.	.
=19	=19	=19	=19	=19	=19
I;	2.CC;	2.BB-;	2.d;	2.f;	2.b-;
==	==	==	==	==	==
*-	*-	*-	*-	*-	*-
!!chor2scor: -l 3 -s 0.6 -o %b.pmx
!!!YEC: Copyright 1994, David Huron
!!!YEC: Changes/Additions 2001 by Craig Stuart Sapp
!!!YEN: United States of America
!!!SMA: 371 Bach Chorales, edited by Ludwig Erk, C.F. Peters
!!!PDT: 1850, 1865
!!!ONB: Harmony and Root analysis done manually
